X: 1700
T: the Boys of Bluehill   #2
R: hornpipe, reel
%S: s:3 b:13(6+7)
B: O'Neill's 1850 #1700
O: West
M: 2/4
L: 1/16
K: D
(FA) \
|: BAFA D2(FA) | BABd e2(de) | faaf egfe |[1,3 dfed B2(dB) :|[1,2 d2dd d2 :: (fg) | afdf a2(gf) |
|  gfga b2(ag) | faaf egfe   | dfed B2(dB) ||  BAFA D2(FA) | BABd e2(de) | faaf egfe | d2dd d2 :|
